!!!OTL: Das Schwabentoechterlein Es wollt ein Maedchen nach Frankfurt ziehn
!!!ARE: Europa, Mitteleuropa, Deutschland / UdSSR, Ostpreussen
!!!YOR: 4, S. 52
!!    ????
!!!SCT: Q0073J
!!!YEM: Copyright 1995, estate of Helmut Schaffrath.
**kern
*ICvox
*Ivox
*M3/4
*k[f#]
*G:
{8b
=1
8b
8b
4b
8.b
16b
=2
8.b
16a
4a
8r}
{8dd
=3
8dd
8dd
4ee
4dd
=4
4dd
4b
8r}
{8dd
=5
8b
8dd
8gg
8aa
4gg
=6
8.b
16ee
4ee
8r}
{8ee
=7
8ee
8ee
4dd
8.cc
16a
=8
4a
4g
8r}
==
!!!AGN: Ballade, Weglaufen, Schwangerschaft, Rueckkehr
!!!ONB: ESAC (Essen Associative Code) Database: BALLADE
!!!AMT: simple triple
!!!AIN: vox
!!!EED: Helmut Schaffrath
!!!EEV: 1.0
*-
